X:357
T:Happy Meeting,The. (p)1696.PLFD.357
M:3/2
L:1/4
Q:1/2=100
S:Playford, Dancing Master,9th Ed,1st Supp.,1696.
O:England
D:
H:1696.
Z:Chris Partington.
K:Bb
FB2dcB|c2A2F2|fb2BBc|(B/c/d)c>BB2|
Bd2fba|g2=e2c2|fa2c'fg|a2g>ff2:|
|:fb2ag2|eg2fe2|cf2ede|c3Bc2|
(d/e/)f(d/e/)fcf|(d/e/)f(d/e/)fcf|B2(ef)(ed)|c4B2:|
